src/assets/outline/LampSlash.svg

<svg width="24" height="24" viewBox="0 0 24 24"  xmlns="http://www.w3.org/2000/svg">
<path d="M4.18012 19.0799C3.99012 19.0799 3.80012 19.0099 3.65012 18.8599C3.36012 18.5699 3.36012 18.0899 3.65012 17.7999L19.5001 1.94992C19.7901 1.65992 20.2701 1.65992 20.5601 1.94992C20.8501 2.23992 20.8501 2.71992 20.5601 3.00992L4.71012 18.8599C4.56012 19.0099 4.37012 19.0799 4.18012 19.0799Z" />
<path d="M5.24982 13.75C4.95982 13.75 4.68982 13.58 4.55982 13.3C4.06982 12.18 3.81982 11.04 3.81982 9.90001C3.81982 7.18001 4.99982 4.67001 7.04982 3.01001C8.96982 1.47001 11.3498 0.910008 13.7498 1.44001C15.3298 1.79001 16.7698 2.62001 17.8998 3.84001C18.1798 4.14001 18.1598 4.62001 17.8598 4.90001C17.5598 5.18001 17.0798 5.16001 16.7998 4.86001C15.8698 3.86001 14.7098 3.18001 13.4298 2.90001C11.4798 2.48001 9.54982 2.93001 7.99982 4.18001C6.29982 5.55001 5.32982 7.63001 5.32982 9.90001C5.32982 10.83 5.53982 11.77 5.93982 12.7C6.10982 13.08 5.92982 13.52 5.54982 13.69C5.44982 13.73 5.34982 13.75 5.24982 13.75Z" />
<path d="M14.6101 19.7502H9.4201C9.0301 19.7502 8.4801 19.7102 8.1101 19.3302C7.7501 18.9602 7.7601 18.4902 7.7701 18.1802V17.2702C7.3701 16.9902 6.9901 16.6702 6.6301 16.3102C6.3401 16.0202 6.3401 15.5402 6.6301 15.2502C6.9201 14.9602 7.4001 14.9602 7.6901 15.2502C8.0801 15.6302 8.4901 15.9702 8.9201 16.2502C9.1301 16.3902 9.2701 16.6302 9.2701 16.8802V18.2202C9.2701 18.2302 9.2701 18.2402 9.2701 18.2502C9.3101 18.2502 9.3601 18.2502 9.4301 18.2502H14.6201C14.6901 18.2502 14.7401 18.2502 14.7801 18.2402C14.7801 18.2002 14.7801 18.1602 14.7801 18.1302V16.8702C14.7801 16.6102 14.9101 16.3802 15.1301 16.2402C17.6001 14.6602 19.5001 11.1602 18.3601 7.5302C18.2401 7.1302 18.4601 6.7102 18.8501 6.5902C19.2401 6.4602 19.6701 6.69019 19.7901 7.08019C21.1001 11.2602 19.0601 15.2902 16.2801 17.2702V18.0402C16.2901 18.3502 16.3001 18.8802 15.8901 19.3002C15.5801 19.6002 15.1601 19.7502 14.6101 19.7502Z" />
<path d="M15.4998 22.7504C15.4298 22.7504 15.3598 22.7404 15.2898 22.7204C13.1298 22.1004 10.8598 22.1004 8.69977 22.7204C8.29977 22.8304 7.88977 22.6004 7.76977 22.2004C7.64977 21.8004 7.88977 21.3904 8.28977 21.2704C10.7098 20.5804 13.2798 20.5804 15.6998 21.2704C16.0998 21.3804 16.3298 21.8004 16.2198 22.2004C16.1298 22.5404 15.8298 22.7504 15.4998 22.7504Z" />
</svg>

<?xml version="1.0" encoding="UTF-8"?>
<svg width="24" height="24" viewBox="0 0 24 24" xmlns="http://www.w3.org/2000/svg">
 <path d="m4.1801 19.08c-0.19 0-0.38-0.07-0.53-0.22-0.29-0.29-0.29-0.77 0-1.06l15.85-15.85c0.29-0.29 0.77-0.29 1.06 0s0.29 0.77 0 1.06l-15.85 15.85c-0.15 0.15-0.34 0.22-0.53 0.22z"/>
 <path d="m5.2498 13.75c-0.29 0-0.56-0.17-0.69-0.45-0.49-1.12-0.74-2.26-0.74-3.4 0-2.72 1.18-5.23 3.23-6.89 1.92-1.54 4.3-2.1 6.7-1.57 1.58 0.35 3.02 1.18 4.15 2.4 0.28 0.3 0.26 0.78-0.04 1.06s-0.78 0.26-1.06-0.04c-0.93-1-2.09-1.68-3.37-1.96-1.95-0.42-3.88 0.03-5.43 1.28-1.7 1.37-2.67 3.45-2.67 5.72 0 0.92999 0.21 1.87 0.61 2.8 0.17 0.38-0.01 0.82-0.39 0.99-0.1 0.04-0.2 0.06-0.3 0.06z"/>
 <path d="m14.61 19.75h-5.19c-0.39 0-0.94-0.04-1.31-0.42-0.36-0.37-0.35-0.84-0.34-1.15v-0.91c-0.4-0.28-0.78-0.6-1.14-0.96-0.29-0.29-0.29-0.77 0-1.06s0.77-0.29 1.06 0c0.39 0.38 0.8 0.72 1.23 1 0.21 0.14 0.35 0.38 0.35 0.63v1.34 0.03h0.16 5.19c0.07 0 0.12 0 0.16-0.01v-0.11-1.26c0-0.26 0.13-0.49 0.35-0.63 2.47-1.58 4.37-5.08 3.23-8.71-0.12-0.4 0.1-0.82 0.49-0.94 0.39-0.13 0.82 0.09999 0.94 0.48999 1.31 4.18-0.73 8.21-3.51 10.19v0.77c0.01 0.31 0.02 0.84-0.39 1.26-0.31 0.3-0.73 0.45-1.28 0.45z"/>
 <path d="m15.5 22.75c-0.07 0-0.14-0.01-0.21-0.03-2.16-0.62-4.43-0.62-6.59 0-0.4 0.11-0.81-0.12-0.93-0.52s0.12-0.81 0.52-0.93c2.42-0.69 4.99-0.69 7.41 0 0.4 0.11 0.63 0.53 0.52 0.93-0.09 0.34-0.39 0.55-0.72 0.55z"/>
</svg>
